X:1
T:Et incarnatus est - Caldara
T:James Gibb editions
T:#
%%score 1 { 2 | 3 }
L:1/8
Q:1/4=96
M:3/2
K:Bb
V:1 treble nm="Soprano"
V:2 treble nm="Midi_7"
V:3 bass 
V:1
"^Et incarnatus est""^Antonio Caldara\n(c.1670-1736)""^adagio" z12 | z12 | z12 |!mp! G4 G4 G4 | %4
w: |||Et in- car-|
 c8 c4 | z2 e2 A4 c4 | (B6 A2) G4 | z4 G4 G4 | d8 d4 |[M:3/2] z2 f2 =B4 d4 | c12 | ^c4 c6 d2 | %12
w: na- tus,|et in- car-|na\- * tus,|in- car-|na- tus,|et in- car-|na-|tus est de|
 d8 A2 =B2 | (=c8 d2 A2 | _B8) B4 | z4 f4 _A4 | _A4 G4 g4 | (g4 B4) B4 | A6 A2 A4 | z4 =B8 | %20
w: Spi- ri- tu|san\- * *|* cto|ex Ma-|ri- a, Ma-|ri\- * a|vir- gi- ne|et|
 c8 c4 | z4 ^c8 | d12- | d12 | d12 | d3 =B ^c6 d2 | d8 z4 | z4 z4 A4 | _B8 B4 | (f2 d2) _A4 A4 | %30
w: ho- mo,|et|ho\-||mo,|ho- mo fa- ctus|est,|et|ho- mo|et * ho- mo|
 (_A2 F2) G4 c4- | c2 A2 =B6 B2 | c4 e4 c4 | _A4 A4 c4 | _A8 G4 | ^F4 F4 F4 | G12- | G12 | G12 | %39
w: fa\- * ctus, ho\-|* mo fa- ctus|est, ho- mo|fa- ctus, et|ho- mo|fa- ctus est,|ho\-||mo|
 (G3 =E) (^F6 G2) | G8 z4 | z12 |[Q:1/4=94] z12[Q:1/4=92][Q:1/4=89][Q:1/4=87][Q:1/4=85][Q:1/4=83] | %43
w: fa\- * ctus *|est.|||
[Q:1/4=82] z12 |] %44
w: |
V:2
!p! [B,DG]2 [B,DG]2 [B,DG]2 [B,DG]2 [B,DG]2 [B,DG]2 | %1
 [=B,DG]2 [B,DG]2 [CEG]2 [CEG]2 [CEG]2 [CEG]2 | [A,CG]2 [A,CG]2 [A,C^F]2 [A,CF]2 [A,CF]2 [A,CF]2 | %3
 [DG]2 [DG]2 [DG]2 [DG]2 [DG]2 [DG]2 | [EA]2 [EA]2 [EA]2 [EA]2 [EA]2 [EA]2 | %5
 [EA]2 [EA]2 [EA]2 [EA]2 [EA]2 [EA]2 | [DG]2 [DG]2 [DG]2 [DG]2 [DG]2 [DG]2 | %7
 [DG]2 [DG]2 [DG]2 [DG]2 [DG]2 [DG]2 | [D_A]2 [DA]2 [DA]2 [DA]2 [DA]2 [DA]2 | %9
[M:3/2] [D_A]2 [DA]2 [DA]2 [DA]2 [DA]2 [DA]2 | [EG]2 [EG]2 [EG]2 [EG]2 [EG]2 [EG]2 | %11
 [^CG]2 [CG]2 [CG]2 [CG]2 [CG]2 [CG]2 | [D^F]2 [DF]2 [DF]2 [DF]2 [DF]2 [DF]2 | %13
 [D^F]2 [DF]2 [DF]2 [DF]2 [DF]2 [DF]2 | [D=F]2 [DF]2 [DF]2 [DF]2 [DF]2 [DF]2 | %15
 [DF]2 [DF]2 [DF]2 [DF]2 [DF]2 [DF]2 | [B,F]2 [B,F]2 [B,E]2 [B,E]2 [B,E]2 [B,E]2 | %17
 [=EG]2 [EG]2 [EG]2 [EG]2 [EG]2 [EG]2 | [CF]2 [CF]2 [CF]2 [CF]2 [CF]2 [CF]2 | %19
 [DF]2 [DF]2 [DF]2 [DF]2 [DF]2 [DF]2 | [C_E]2 [CE]2 [CE]2 [CE]2 [CE]2 [CE]2 | %21
 [^CG]2 [CG]2 [CG]2 [CG]2 [CG]2 [CG]2 | [D^F]2 [DF]2 [DF]2 [DF]2 [DF]2 [DF]2 | %23
 [DG]2 [DG]2 [DG]2 [DG]2 [DG]2 [DG]2 | [D=E]2 [DE]2 [DE]2 [DE]2 [DE]2 [DE]2 | %25
 [D=E]2 [DE]2 [^CE]2 [CE]2 [CE]2 [CE]2 | [D^F]2 [DF]2 [DF]2 [DF]2 [DG]2 [DG]2 | %27
 [DG]2 [DG]2 [DG]2 [DG]2 [D^F]2 [DF]2 | [D=F]2 [DF]2 [DF]2 [DF]2 [DF]2 [DF]2 | %29
 [B,F]2 [B,F]2 [B,F]2 [B,F]2 [B,F]2 [B,F]2 | [B,E]2 [B,E]2 E2 E2 [CG]2 [CG]2 | %31
 [DF]2 [DF]2 [DF]2 [DF]2 [DF]2 [DF]2 | [CE]2 [CE]2 [CE]2 [CE]2 [CE]2 [CE]2 | %33
 [CE]2 [CE]2 [CE]2 [CE]2 [E_A]2 [EA]2 | [E_A]2 [EA]2 [EA]2 [EA]2 [EG]2 [EG]2 | %35
 [D^F]2 [DF]2 [DF]2 [DF]2 [DF]2 [DF]2 | [DG]2 [DG]2 [DG]2 [DG]2 [DG]2 [DG]2 | %37
 [EG]2 [EG]2 [EG]2 [EG]2 [=EG]2 [EG]2 | [=EG]2 [EG]2 [EG]2 [EG]2 [EG]2 [EG]2 | %39
 [DG]2 [DG]2 [DG]2 [DG]2 [C^F]2 [CF]2 | [DG]2 [DG]2 [DG]2 [DG]2 [DG]2 [DG]2 | %41
 [EG]2 [EG]2 [EG]2 [EG]2 [EG]2 [EG]2 | [CG]2 [CG]2 [C^F]2 [CF]2 [CF]2 [CF]2 | [DG]8 z4 |] %44
V:3
!p! G,2 G,2 G,2 G,2 G,2 G,2 | G,2 G,2 G,2 G,2 G,2 G,2 | G,2 G,2 G,2 G,2 G,2 G,2 | %3
 [G,B,]2 [G,B,]2 [G,B,]2 [G,B,]2 [G,B,]2 [G,B,]2 | [^F,C]2 [F,C]2 [F,C]2 [F,C]2 [F,C]2 [F,C]2 | %5
 [^F,C]2 [F,C]2 [F,C]2 [F,C]2 [F,C]2 [F,C]2 | [G,B,]2 [G,B,]2 [G,B,]2 [G,B,]2 [G,B,]2 [G,B,]2 | %7
 [G,B,]2 [G,B,]2 [G,B,]2 [G,B,]2 [G,B,]2 [G,B,]2 | %8
 [F,=B,]2 [F,B,]2 [F,B,]2 [F,B,]2 [F,B,]2 [F,B,]2 | %9
[M:3/2] [F,=B,]2 [F,B,]2 [F,B,]2 [F,B,]2 [F,B,]2 [F,B,]2 | %10
 [E,C]2 [E,C]2 [E,C]2 [E,C]2 [E,C]2 [E,C]2 | [=E,B,]2 [E,B,]2 [E,B,]2 [E,B,]2 [E,B,]2 [E,B,]2 | %12
 [D,A,]2 [D,A,]2 [D,A,]2 [D,A,]2 [D,A,]2 [D,A,]2 | %13
 [D,A,]2 [D,A,]2 [D,A,]2 [D,A,]2 [D,A,]2 [D,A,]2 | %14
 [D,B,]2 [D,B,]2 [D,B,]2 [D,B,]2 [D,B,]2 [D,B,]2 | %15
 [D,_A,]2 [D,A,]2 [D,A,]2 [D,A,]2 [D,A,]2 [D,A,]2 | %16
 [E,_A,]2 [E,A,]2 [E,G,]2 [E,G,]2 [E,G,]2 [E,G,]2 | %17
 [C,B,]2 [C,B,]2 [C,B,]2 [C,B,]2 [C,B,]2 [C,B,]2 | %18
 [F,A,]2 [F,A,]2 [F,A,]2 [F,A,]2 [F,A,]2 [F,A,]2 | %19
 [D,=B,]2 [D,B,]2 [D,B,]2 [D,B,]2 [D,B,]2 [D,B,]2 | %20
 [C,G,]2 [C,G,]2 [C,G,]2 [C,G,]2 [C,G,]2 [C,G,]2 | %21
 [=E,G,]2 [E,G,]2 [E,G,]2 [E,G,]2 [E,G,]2 [E,G,]2 | %22
 [D,A,]2 [D,A,]2 [D,A,]2 [D,A,]2 [D,A,]2 [D,A,]2 | %23
 [G,B,]2 [G,B,]2 [G,B,]2 [G,B,]2 [G,=B,]2 [G,B,]2 | %24
 [G,=B,]2 [G,B,]2 [G,B,]2 [G,B,]2 [G,B,]2 [G,B,]2 | A,2 A,2 A,2 A,2 A,2 A,2 | %26
 [D,A,]2 [D,A,]2 [D,_B,]2 [D,B,]2 [D,B,]2 [D,B,]2 | %27
 [D,B,]2 [D,B,]2 [D,A,]2 [D,A,]2 [D,A,]2 [D,A,]2 | %28
 [D,B,]2 [D,B,]2 [D,B,]2 [D,B,]2 [D,B,]2 [D,B,]2 | %29
 [D,_A,]2 [D,A,]2 [D,A,]2 [D,A,]2 [D,A,]2 [D,A,]2 | %30
 [E,_A,]2 [E,A,]2 [E,G,]2 [E,G,]2 [E,G,]2 [E,G,]2 | %31
 [D,C]2 [D,C]2 [D,=B,]2 [D,B,]2 [D,B,]2 [D,B,]2 | [C,G,]2 [C,G,]2 [C,G,]2 [C,G,]2 [C,G,]2 [C,G,]2 | %33
 [C,_A,]2 [C,A,]2 [C,A,]2 [C,A,]2 [C,A,]2 [C,A,]2 | [C,C]2 [C,C]2 [C,C]2 [C,C]2 [C,C]2 [C,C]2 | %35
 [C,=A,]2 [C,A,]2 [C,A,]2 [C,A,]2 [C,A,]2 [C,A,]2 | %36
 [B,,B,]2 [B,,B,]2 [B,,B,]2 [B,,B,]2 [B,,B,]2 [B,,B,]2 | %37
 [C,G,]2 [C,G,]2 [C,G,]2 [C,G,]2 [C,G,]2 [C,G,]2 | %38
 [^C,=A,]2 [C,A,]2 [C,A,]2 [C,A,]2 [C,A,]2 [C,A,]2 | %39
 [D,A,]2 [D,A,]2 [D,A,]2 [D,A,]2 [D,A,]2 [D,A,]2 | %40
 [G,B,]2 [G,B,]2 [G,B,]2 [G,B,]2 [G,=B,]2 [G,B,]2 | [G,C]2 [G,C]2 [G,C]2 [G,C]2 [G,C]2 [G,C]2 | %42
 [G,A,]2 [G,A,]2 [G,A,]2 [G,A,]2 [G,A,]2 [G,A,]2 | [G,=B,]8 z4 |] %44

